images/elyfi.svg

<svg height="250" viewBox="0 0 250 250" width="250" xmlns="http://www.w3.org/2000/svg"><path d="m249.765625 125c0 68.90625-55.859375 124.765625-124.765625 124.765625s-124.765625-55.859375-124.765625-124.765625 55.859375-124.765625 124.765625-124.765625 124.765625 55.859375 124.765625 124.765625zm0 0" fill="#00bfff"/><path d="m132.683594 173.941406 64.726562-31.449218c-7.601562 31.539062-35.359375 55.542968-69.386718 56.921874-41.09375 1.671876-75.769532-30.289062-77.4375-71.386718-1.671876-41.097656 30.289062-75.769532 71.386718-77.441406 30.738282-1.25 57.882813 16.316406 70.316406 42.449218l-62.878906 30.550782-44.167968-19.023438c-3.59375-1.550781-7.765626.113281-9.320313 3.710938-1.550781 3.59375.113281 7.765624 3.710937 9.320312l47.144532 20.304688c.898437.386718 1.851562.578124 2.808594.578124 1.0625 0 2.121093-.234374 3.097656-.710937l64.460937-31.316406c1.277344 4.984375 2.050781 10.179687 2.269531 15.527343.050782 1.253907.070313 2.5.058594 3.746094l-70.0625 34.035156-44.167968-19.023437c-3.59375-1.550781-7.765626.113281-9.320313 3.710937-1.550781 3.59375.113281 7.765626 3.710937 9.320313l47.144532 20.304687c.898437.386719 1.851562.578126 2.808594.578126 1.0625.003906 2.121093-.234376 3.097656-.707032zm0 0" fill="#fff"/></svg>

<!-- Generator: Adobe Illustrator 25.3.1, SVG Export Plug-In . SVG Version: 6.00 Build 0)  -->
<svg xmlns="http://www.w3.org/2000/svg" xmlns:xlink="http://www.w3.org/1999/xlink" width="250px" height="250px" viewBox="0 0 250 250" version="1.1">
<g id="surface1">
<path style=" stroke:none;fill-rule:nonzero;fill:rgb(0%,74.901962%,100%);fill-opacity:1;" d="M 249.765625 125 C 249.765625 193.90625 193.90625 249.765625 125 249.765625 C 56.09375 249.765625 0.234375 193.90625 0.234375 125 C 0.234375 56.09375 56.09375 0.234375 125 0.234375 C 193.90625 0.234375 249.765625 56.09375 249.765625 125 Z M 249.765625 125 "/>
<path style=" stroke:none;fill-rule:nonzero;fill:rgb(100%,100%,100%);fill-opacity:1;" d="M 132.683594 173.941406 L 197.410156 142.492188 C 189.808594 174.03125 162.050781 198.035156 128.023438 199.414062 C 86.929688 201.085938 52.253906 169.125 50.585938 128.027344 C 48.914062 86.929688 80.875 52.257812 121.972656 50.585938 C 152.710938 49.335938 179.855469 66.902344 192.289062 93.035156 L 129.410156 123.585938 L 85.242188 104.5625 C 81.648438 103.011719 77.476562 104.675781 75.921875 108.273438 C 74.371094 111.867188 76.035156 116.039062 79.632812 117.59375 L 126.777344 137.898438 C 127.675781 138.285156 128.628906 138.476562 129.585938 138.476562 C 130.648438 138.476562 131.707031 138.242188 132.683594 137.765625 L 197.144531 106.449219 C 198.421875 111.433594 199.195312 116.628906 199.414062 121.976562 C 199.464844 123.230469 199.484375 124.476562 199.472656 125.722656 L 129.410156 159.757812 L 85.242188 140.734375 C 81.648438 139.183594 77.476562 140.847656 75.921875 144.445312 C 74.371094 148.039062 76.035156 152.210938 79.632812 153.765625 L 126.777344 174.070312 C 127.675781 174.457031 128.628906 174.648438 129.585938 174.648438 C 130.648438 174.652344 131.707031 174.414062 132.683594 173.941406 Z M 132.683594 173.941406 "/>
</g>
</svg>
